X: 900
T: Autumn Woods
%T: coillte an \.fo\.g\.mair
R: hornpipe
%S: s:3 b:14(6+4+4)
O: Ireland
B: Francis O'Neill: "The Dance Music of Ireland" (1907) no. 900
Z: Transcribed by Frank Nordberg - http://www.musicaviva.com
F: http://www.musicaviva.com/abc/tunes/ireland/oneill-1001/0900/oneill-1001-0900-1.abc
M: 2/4
L: 1/16
K: G
"^A"[|] (Bc) \
| dedc BcBA | GFGD EDB,D |[1,3 cBce dBgB | AGAB A2 :|[2,4 Ggfe dcBA | G2G2 G2 :|
"^B"|:\
(cB) | ABAG FGAB | cBce defg | afge fdec | dcde dc ||
| Bc | dcBd cBAc | BAGF GABc | dgfe dcBA | G2G2 G2 :|
